X:1
T:Casne rano
C:traditionell
S:Sammlung Josef Reszny
A:Prachinerland
Z:abc transcription Simon Wascher
F:http://simonwascher.info/
M:2/4
L:1/8
K:Gm
d2B2 | G2d2 | cc/A/ Bc | d2B2 |
G2d2 | cc/A/B2 || B>c dd |
ee/d/ cB | A>B cc | dd/c/ BA |
d2 B2 | G2 d2 | BB/A/ G2 |]
